static/img/icons/social/ico-Twitter-b.svg

<svg fill="none" height="23" viewBox="0 0 28 23" width="28" xmlns="http://www.w3.org/2000/svg"><path d="m27.5579 2.69146c-1.0542.44858-2.1069.7472-3.2424.89715 1.1355-.67223 2.027-1.7943 2.5134-3.140033-1.0541.672233-2.2695 1.120803-3.5661 1.345733-1.0542-1.12081-2.5134-1.79431004-4.1339-1.79431004-3.1611 0-5.6745 2.54151004-5.6745 5.68155004 0 .44857.0813.89715.1626 1.27075-4.70158-.22365-8.83547-2.46653-11.67269-5.9052-.48642.82218-.72895 1.79431-.72895 2.84014 0 1.94299.97285 3.66232 2.51341 4.70942-.89154 0-1.78309-.29863-2.59333-.67223v.07498c0 2.76519 1.94569 5.00809 4.53901 5.53159-.48642.15-.97284.2237-1.45926.2237-.40512 0-.72894 0-1.05414-.075.72894 2.2429 2.83723 3.8872 5.26933 3.9622-1.94568 1.4944-4.37641 2.3916-7.05242 2.3916-.486418 0-.891539 0-1.37796-.075 2.51341 1.5694 5.51185 2.5415 8.6729 2.5415 10.3747 0 16.0491-8.5967 16.0491-16.07125 0-.22365 0-.52355 0-.7472 1.1341-.89716 2.1069-1.86928 2.8359-2.99009z" fill="#3a3c42"/></svg>

<svg alt="twitter" width="28" height="23" viewBox="0 0 28 23" fill="none" xmlns="http://www.w3.org/2000/svg">
<path d="M27.5579 2.69146C26.5037 3.14004 25.451 3.43866 24.3155 3.58861C25.451 2.91638 26.3425 1.79431 26.8289 0.448577C25.7748 1.12081 24.5594 1.56938 23.2628 1.79431C22.2086 0.6735 20.7494 -3.87804e-08 19.1289 -3.87804e-08C15.9678 -3.87804e-08 13.4544 2.54151 13.4544 5.68155C13.4544 6.13012 13.5357 6.5787 13.617 6.9523C8.91542 6.72865 4.78153 4.48577 1.94431 1.0471C1.45789 1.86928 1.21536 2.84141 1.21536 3.88724C1.21536 5.83023 2.18821 7.54956 3.72877 8.59666C2.83723 8.59666 1.94568 8.29803 1.13544 7.92443V7.99941C1.13544 10.7646 3.08113 13.0075 5.67445 13.531C5.18803 13.681 4.70161 13.7547 4.21519 13.7547C3.81007 13.7547 3.48625 13.7547 3.16105 13.6797C3.88999 15.9226 5.99828 17.5669 8.43038 17.6419C6.4847 19.1363 4.05397 20.0335 1.37796 20.0335C0.891542 20.0335 0.486421 20.0335 0 19.9585C2.51341 21.5279 5.51185 22.5 8.6729 22.5C19.0476 22.5 24.722 13.9033 24.722 6.42875C24.722 6.2051 24.722 5.9052 24.722 5.68155C25.8561 4.78439 26.8289 3.81227 27.5579 2.69146Z" fill="#3A3C42"/>
</svg>
